assets/Tornado/Flat/tornado_flat.svg

<svg width="32" height="32" viewBox="0 0 32 32" fill="none" xmlns="http://www.w3.org/2000/svg">
<path d="M3.38857 2C2.61714 2 2 2.65 2 3.44V5C2 13.2 8.37393 16.72 11.6429 19.66C16.4643 24 15.1336 27.41 13.5714 30H17.4286C22.9636 21.5 19.8393 19.85 22.25 16.01C24.1496 12.99 29 12 29 5V3.44C29 2.64 28.3732 2 27.6114 2H3.38857Z" fill="#D3D3D3"/>
<path d="M15.1111 6H8.88889C8.4 6 8 5.55 8 5C8 4.45 8.4 4 8.88889 4H15.1111C15.6 4 16 4.45 16 5C16 5.55 15.6 6 15.1111 6Z" fill="#9B9B9B"/>
<path d="M29 8H20C19.45 8 19 8.45 19 9C19 9.55 19.45 10 20 10H29C29.55 10 30 9.55 30 9C30 8.45 29.55 8 29 8Z" fill="#9B9B9B"/>
<path d="M16.8571 18C16.3857 18 16 18.45 16 19C16 19.55 16.3857 20 16.8571 20H21.1429C21.6143 20 22 19.55 22 19C22 18.45 21.6143 18 21.1429 18H16.8571Z" fill="#9B9B9B"/>
<path d="M4.92857 13H16.0714C16.5821 13 17 13.45 17 14C17 14.55 16.5821 15 16.0714 15H4.92857C4.41786 15 4 14.55 4 14C4 13.45 4.41786 13 4.92857 13Z" fill="#9B9B9B"/>
<path d="M14 25C14 24.45 14.36 24 14.8 24H17.2C17.64 24 18 24.45 18 25C18 25.55 17.64 26 17.2 26H14.8C14.36 26 14 25.55 14 25Z" fill="#9B9B9B"/>
<path d="M19 28C19.7496 28 20.4063 28.4179 20.7486 29.0322C20.829 29.0112 20.9133 29 21 29C21.55 29 22 29.45 22 30H17C17 28.9 17.9 28 19 28Z" fill="#9B9B9B"/>
<path d="M13 28C13.5208 28 13.9967 28.2017 14.3536 28.5309C14.1228 29.0473 13.8508 29.5367 13.5714 30H10C10 29.45 10.45 29 11 29C11.0867 29 11.171 29.0112 11.2514 29.0322C11.5937 28.4179 12.2504 28 13 28Z" fill="#9B9B9B"/>
</svg>

<svg xmlns="http://www.w3.org/2000/svg" width="32" height="32" fill="none"><path fill="#D3D3D3" d="M3.389 2C2.617 2 2 2.65 2 3.44V5c0 8.2 6.374 11.72 9.643 14.66C16.464 24 15.133 27.41 13.57 30h3.858c5.535-8.5 2.41-10.15 4.821-13.99C24.15 12.99 29 12 29 5V3.44c0-.8-.627-1.44-1.389-1.44H3.39Z"/><path fill="#9B9B9B" d="M15.111 6H8.89C8.4 6 8 5.55 8 5s.4-1 .889-1h6.222C15.6 4 16 4.45 16 5s-.4 1-.889 1ZM29 8h-9c-.55 0-1 .45-1 1s.45 1 1 1h9c.55 0 1-.45 1-1s-.45-1-1-1ZM16.857 18c-.471 0-.857.45-.857 1s.386 1 .857 1h4.286c.471 0 .857-.45.857-1s-.386-1-.857-1h-4.286ZM4.929 13H16.07c.511 0 .929.45.929 1s-.418 1-.929 1H4.93C4.418 15 4 14.55 4 14s.418-1 .929-1ZM14 25c0-.55.36-1 .8-1h2.4c.44 0 .8.45.8 1s-.36 1-.8 1h-2.4c-.44 0-.8-.45-.8-1ZM19 28c.75 0 1.406.418 1.749 1.032A1.003 1.003 0 0 1 22 30h-5c0-1.1.9-2 2-2ZM13 28c.52 0 .997.202 1.354.53A13.62 13.62 0 0 1 13.57 30H10a1.003 1.003 0 0 1 1.251-.968A2.005 2.005 0 0 1 13 28Z"/></svg>
